!!!!SEGMENT: pl-sa--37-a-i-37--002_anonim--pastorella-poczekaj-bracie.krn
!!!cenid: 17xx:1239
!!!COM: Anonim
!!!COM-rismid: pe30004985
!!!CDT:
!!!CNT:
!!!OPR: Pastorella
!!!OTL: Poczekaj bracie
!!!OMV: 002
!!!PDT: 1773
!!!AGN:
!!!SMS-siglum: PL-SA
!!!SMS-shelfmark: 37/A I 37
!!!SMS-shelfwork: 001-002 M
!!!SMS-variant:
!!!SMS-altvar:
!!!NIFC-rismid: 1001069554
!!!system-decoration: [(s1)][(s2,s3,s4,s5)][(s6,s7,s8)][(s9)]
**kern	**kern	**kern	**kern	**kern	**text	**kern	**kern	**kern	**kern
*part9	*part8	*part7	*part6	*part5	*part5	*part4	*part3	*part2	*part1
*staff9	*staff8	*staff7	*staff6	*staff5	*staff5	*staff4	*staff3	*staff2	*staff1
*I"Organo	*I"Tuba Solo	*I"Violino Secundo	*I"Violino Primo	*I"Baſso	*	*I"Tenore	*I"Alto	*I"Canto	*I"Principale
*I'org	*I'tuba solo	*I'vl 2	*I'vl 1	*I'B	*	*I'T	*I'A	*I'S	*I'princ
*clefF4	*clefG2	*clefG2	*clefG2	*clefF4	*	*clefC4	*clefC3	*clefC1	*clefG2
*k[f#c#]	*k[f#c#]	*k[f#c#]	*k[f#c#]	*k[f#c#]	*	*k[f#c#]	*k[f#c#]	*k[f#c#]	*k[f#c#]
*D:	*D:	*D:	*D:	*D:	*	*D:	*D:	*D:	*D:
*M2/2	*M2/2	*M2/2	*M2/2	*M2/2	*	*M2/2	*M2/2	*M2/2	*M2/2
*met(c|)	*met(c|)	*met(c|)	*met(c|)	*met(c|)	*	*met(c|)	*met(c|)	*met(c|)	*met(c|)
=1	=1	=1	=1	=1	=1	=1	=1	=1	=1
*2\right	*	*2\right	*2\right	*2\right	*	*	*	*	*
!!LO:TX:t=P:problem:all\right, middle or left:global
!LO:TX:a:Bi:t=Allabreve:rj	!	!	!LO:TX:a:Bi:t=Allabreve:rj	!	!	!	!	!	!
!	!LO:TX:a:Bi:t=Tacet	!	!	!	!	!LO:TX:a:Bi:t=Tacet	!LO:TX:a:Bi:t=Tacet	!LO:TX:a:Bi:t=Tacet	!LO:TX:a:Bi:t=Tacet
!	!	!	!LO:TX:a:t=P:w źródle znak początku repetycji [ bis ]:problem	!	!	!	!	!	!
2D\	1ryy	2d/	2d/	4A\	Po-	1ryy	1ryy	1ryy	1ryy
.	.	.	.	8A\	-cze-	.	.	.	.
.	.	.	.	8A\	-kay	.	.	.	.
2E\	.	2e/	2e/	4G\	bra-	.	.	.	.
.	.	.	.	4G\	-cie	.	.	.	.
!	!	!	!	!LO:LB:g=original	!	!	!	!	!
=2	=2	=2	=2	=2	=2	=2	=2	=2	=2
2AA/	1ryy	2A/	2A/	4E\	poy-	1ryy	1ryy	1ryy	1ryy
.	.	.	.	8E\	-dzie-	.	.	.	.
.	.	.	.	8E\	-my	.	.	.	.
2D/	.	2d/	2d/	2F#\	tam	.	.	.	.
!LO:LB:g=original	!	!	!	!	!	!	!	!	!
=3	=3	=3	=3	=3	=3	=3	=3	=3	=3
2F#\	1ryy	2f#/	2f#/	4D\	mu-	1ryy	1ryy	1ryy	1ryy
.	.	.	.	4D\	-si	.	.	.	.
2G\	.	2g/	2g/	4E\	tam	.	.	.	.
.	.	.	.	4E\	bydz	.	.	.	.
=4	=4	=4	=4	=4	=4	=4	=4	=4	=4
2A\	1ryy	2a/	2a/	4C#/	wiel-	1ryy	1ryy	1ryy	1ryy
.	.	.	.	4AA/	-ki	.	.	.	.
!	!	!	!LO:TX:a:t=P:w źródle znak końca repetycji:problem	!	!	!	!	!	!
2D\	.	2d/	2d/	2D/	Pan	.	.	.	.
=5	=5	=5	=5	=5	=5	=5	=5	=5	=5
*	*	*	*rep	*	*	*	*	*	*
!	!	!	!LO:TX:t=P:problem:w źródle takty 5-8 zapisane za pomocą znaku repetycji	!	!	!	!	!	!
2D\	1ryy	2d/	2d/yy	4A\	Sa-	1ryy	1ryy	1ryy	1ryy
.	.	.	.	4A\	-gar	.	.	.	.
2E\	.	2e/	2e/yy	4G\	nu-	.	.	.	.
.	.	.	.	4G\	-szek	.	.	.	.
=6	=6	=6	=6	=6	=6	=6	=6	=6	=6
2AA/	1ryy	2A/	2A/yy	4E\	z so-	1ryy	1ryy	1ryy	1ryy
.	.	.	.	4E\	-bą	.	.	.	.
2D/	.	2d/	2d/yy	2F#\	mam	.	.	.	.
=7	=7	=7	=7	=7	=7	=7	=7	=7	=7
2F#\	1ryy	2f#/	2f#/yy	4D\	to	1ryy	1ryy	1ryy	1ryy
.	.	.	.	4D\	mu	.	.	.	.
!	!	!	!	!LO:LB:g=original	!	!	!	!	!
2G\	.	2g/	2g/yy	4E\	z ser-	.	.	.	.
.	.	.	.	4E\	-ca	.	.	.	.
=8	=8	=8	=8	=8	=8	=8	=8	=8	=8
2A\	1ryy	2a/	2a/yy	4C#/	Swe-	1ryy	1ryy	1ryy	1ryy
.	.	.	.	4AA/	-go	.	.	.	.
2D\	.	2d/	2d/yy	2D/	dam	.	.	.	.
*	*	*	*Xrep	*	*	*	*	*	*
!	!	!LO:LB:g=original	!	!	!	!	!	!	!
=9	=9	=9	=9	=9	=9	=9	=9	=9	=9
2E\	1ryy	2e/	2e/	4G\	ma-	1ryy	1ryy	1ryy	1ryy
.	.	.	.	4E\	-sło	.	.	.	.
2D\	.	2d/	2d/	2F#\	mam	.	.	.	.
=10	=10	=10	=10	=10	=10	=10	=10	=10	=10
2E\	1ryy	2e/	2e/	4G\	to	1ryy	1ryy	1ryy	1ryy
.	.	.	.	4E\	mu	.	.	.	.
2D\	.	2d/	2d/	2D\	dam	.	.	.	.
=11	=11	=11	=11	=11	=11	=11	=11	=11	=11
!	!	!	!	!LO:TX:a:Bi:t=4	!	!	!	!	!
1D	1ryy	4ff#\	4aa\	00r	.	1ryy	1ryy	1ryy	1ryy
.	.	8ff#\L	8aa\L	.	.	.	.	.	.
.	.	8dd\J	8ff#\J	.	.	.	.	.	.
!	!	!	!LO:LB:g=original	!	!	!	!	!	!
.	.	4ee\	4gg\	.	.	.	.	.	.
.	.	8ee\L	8gg\L	.	.	.	.	.	.
.	.	8cc#\J	8ee\J	.	.	.	.	.	.
!LO:LB:g=original	!	!	!	!	!	!	!	!	!
=12	=12	=12	=12	=12	=12	=12	=12	=12	=12
1D	1ryy	4dd\	4ff#\	.	.	1ryy	1ryy	1ryy	1ryy
.	.	4b\	8ff#\L	.	.	.	.	.	.
.	.	.	8dd\J	.	.	.	.	.	.
.	.	4g\	4ee\	.	.	.	.	.	.
.	.	4f#\	4dd\	.	.	.	.	.	.
=13	=13	=13	=13	=13	=13	=13	=13	=13	=13
2D\	1ryy	4ff#\	4aa\	.	.	1ryy	1ryy	1ryy	1ryy
.	.	8ff#\L	8aa\L	.	.	.	.	.	.
.	.	8dd\J	8ff#\J	.	.	.	.	.	.
2D\	.	4ee\	4gg\	.	.	.	.	.	.
.	.	8ee\L	8gg\L	.	.	.	.	.	.
.	.	8cc#\J	8ee\J	.	.	.	.	.	.
=14	=14	=14	=14	=14	=14	=14	=14	=14	=14
1D	1ryy	4dd\	4ff#\	.	.	1ryy	1ryy	1ryy	1ryy
.	.	8a\L	8ff#\L	.	.	.	.	.	.
.	.	8b\J	8dd\J	.	.	.	.	.	.
.	.	2cc#\	2aa\	.	.	.	.	.	.
!	!	!LO:LB:g=original	!	!	!	!	!	!	!
=15	=15	=15	=15	=15	=15	=15	=15	=15	=15
2D\	1ryy	1ff#	2aa\	4F#\	po-	1ryy	1ryy	1ryy	1ryy
.	.	.	.	4G\	-dzmy	.	.	.	.
2D\	.	.	2aa\	2A\	tam	.	.	.	.
=16	=16	=16	=16	=16	=16	=16	=16	=16	=16
1D	1ryy	1ff#	2aa\	4F#\	po-	1ryy	1ryy	1ryy	1ryy
.	.	.	.	4G\	-dzmy	.	.	.	.
.	.	.	2aa\	2A\	tam	.	.	.	.
=17	=17	=17	=17	=17	=17	=17	=17	=17	=17
4G\	1ryy	4ff#\	4gg\	4G\	ja	1ryy	1ryy	1ryy	1ryy
4E\	.	4dd\	4ee\	4E\	za-	.	.	.	.
!	!	!	!	!LO:LB:g=original	!	!	!	!	!
4F#\	.	4a\	4ff#\	4F#\	-ją-	.	.	.	.
4D\	.	4f#\	4dd\	4D\	-ca	.	.	.	.
=18	=18	=18	=18	=18	=18	=18	=18	=18	=18
4E\	1ryy	4a/	4ff#\	4E\	u-	1ryy	1ryy	1ryy	1ryy
4AA/	.	4g/	4ee\	4C#\	-Strze-	.	.	.	.
2D\	.	2f#/	2dd\	2D/	-lę	.	.	.	.
=19	=19	=19	=19	=19	=19	=19	=19	=19	=19
4G\	1ryy	4g/	4g/	4G\	Dam	1ryy	1ryy	1ryy	1ryy
4E\	.	4e/	4e/	4E\	Pa-	.	.	.	.
4F#\	.	4f#/	4f#/	4F#\	-nu	.	.	.	.
4D\	.	4d/	4d/	4D\	ma-	.	.	.	.
!	!	!	!LO:LB:g=original	!	!	!	!	!	!
=20	=20	=20	=20	=20	=20	=20	=20	=20	=20
4E/	1ryy	4e/	4e/	4E\	-ło	1ryy	1ryy	1ryy	1ryy
4AA/	.	4A/	4A/	4AA/	wie-	.	.	.	.
2D/	.	2d/	2d/	2D/	-le	.	.	.	.
!LO:LB:g=original	!	!	!	!	!	!	!	!	!
=21	=21	=21	=21	=21	=21	=21	=21	=21	=21
!	!	!	!	!LO:TX:a:Bi:t=4	!	!	!	!	!
1D	1ryy	4ff#\	4aa\	00r	.	1ryy	1ryy	1ryy	1ryy
.	.	8ff#\L	8aa\L	.	.	.	.	.	.
.	.	8dd\J	8ff#\J	.	.	.	.	.	.
.	.	4ee\	4gg\	.	.	.	.	.	.
.	.	8ee\L	8gg\L	.	.	.	.	.	.
.	.	8cc#\J	8ee\J	.	.	.	.	.	.
!	!	!LO:LB:g=original	!	!	!	!	!	!	!
=22	=22	=22	=22	=22	=22	=22	=22	=22	=22
2D\	1ryy	4a/	4ff#\	.	.	1ryy	1ryy	1ryy	1ryy
.	.	8a/L	8ff#\L	.	.	.	.	.	.
.	.	8f#/J	8dd\J	.	.	.	.	.	.
2D\	.	4g/	4ee\	.	.	.	.	.	.
.	.	4f#/	4ee\	.	.	.	.	.	.
=23	=23	=23	=23	=23	=23	=23	=23	=23	=23
1D	1ryy	4ff#\	4aa\	.	.	1ryy	1ryy	1ryy	1ryy
.	.	8ff#\L	8aa\L	.	.	.	.	.	.
.	.	8dd\J	8ff#\J	.	.	.	.	.	.
.	.	4ee\	4gg\	.	.	.	.	.	.
.	.	8ee\L	8gg\L	.	.	.	.	.	.
.	.	8cc#\J	8ee\J	.	.	.	.	.	.
=24	=24	=24	=24	=24	=24	=24	=24	=24	=24
2D\	1ryy	4dd\	4ff#\	.	.	1ryy	1ryy	1ryy	1ryy
.	.	8a\L	8ff#\L	.	.	.	.	.	.
.	.	8b\J	8dd\J	.	.	.	.	.	.
2D\	.	2cc#\	2aa\	.	.	.	.	.	.
=25	=25	=25	=25	=25	=25	=25	=25	=25	=25
*	*	*^	*	*	*	*	*	*	*
1D	1ryy	2ff#/	2dd\	2aa\	4F#\	Jaza-	1ryy	1ryy	1ryy	1ryy
.	.	.	.	.	4G\	-ię-	.	.	.	.
.	.	2ff#/	2dd\	2aa\	2A\	-ca	.	.	.	.
=26	=26	=26	=26	=26	=26	=26	=26	=26	=26	=26
2D\	1ryy	2ff#/	2dd\	2aa\	4F#\	u-	1ryy	1ryy	1ryy	1ryy
.	.	.	.	.	4G\	-strze-	.	.	.	.
2D\	.	2ff#/	2dd\	2aa\	2A\	-lę	.	.	.	.
*	*	*v	*v	*	*	*	*	*	*	*
=27	=27	=27	=27	=27	=27	=27	=27	=27	=27
4G\	1ryy	4ee\	4aa\	4G\	dam	1ryy	1ryy	1ryy	1ryy
4E\	.	4cc#\	8dd\L	4E\	Pa-	.	.	.	.
.	.	.	8ee\J	.	.	.	.	.	.
!	!	!	!	!LO:LB:g=original	!	!	!	!	!
4F#\	.	4a\	4ff#\	4F#\	-nu	.	.	.	.
4D\	.	4f#\	4dd\	4D\	ma-	.	.	.	.
!	!	!	!LO:LB:g=original	!	!	!	!	!	!
=28	=28	=28	=28	=28	=28	=28	=28	=28	=28
4E\	1ryy	4a/	4ff#\	4E\	-ło-	1ryy	1ryy	1ryy	1ryy
4AA/	.	4g/	4ee\	4AA/	-wie-	.	.	.	.
2D/	.	2f#/	2dd\	2D/	-le	.	.	.	.
!	!	!LO:LB:g=original	!	!	!	!	!	!	!
=29	=29	=29	=29	=29	=29	=29	=29	=29	=29
*^	*	*	*	*	*	*	*	*	*
2A/	2D\	1ryy	4ff#\	4aa\	00r	.	1ryy	1ryy	1ryy	1ryy
.	.	.	4dd\	8ff#\L	.	.	.	.	.	.
.	.	.	.	8dd\J	.	.	.	.	.	.
2A/	2D\	.	4ee\	8ff#\L	.	.	.	.	.	.
.	.	.	.	8dd\J	.	.	.	.	.	.
.	.	.	4a\	4a/	.	.	.	.	.	.
!LO:LB:g=original	!	!	!	!	!	!	!	!	!	!
*v	*v	*	*	*	*	*	*	*	*	*
=30	=30	=30	=30	=30	=30	=30	=30	=30	=30
1A 1D	1ryy	4ff#\	4aa\	.	.	1ryy	1ryy	1ryy	1ryy
.	.	4dd\	8ff#\L	.	.	.	.	.	.
.	.	.	8dd\J	.	.	.	.	.	.
.	.	4ee\	8ff#\L	.	.	.	.	.	.
.	.	.	8dd\J	.	.	.	.	.	.
.	.	4a\	4a/	.	.	.	.	.	.
=31	=31	=31	=31	=31	=31	=31	=31	=31	=31
2D/	1ryy	4f#/	4dd\	.	.	1ryy	1ryy	1ryy	1ryy
.	.	4a/	4ee\	.	.	.	.	.	.
2AA/	.	4dd/	4ff#\	.	.	.	.	.	.
.	.	8ee\L	8gg\L	.	.	.	.	.	.
.	.	8ff#\J	8aa\J	.	.	.	.	.	.
=32	=32	=32	=32	=32	=32	=32	=32	=32	=32
1A 1D 1DD	1ryy	4dd\	4ff#\	.	.	1ryy	1ryy	1ryy	1ryy
.	.	4a\	4ee\	.	.	.	.	.	.
.	.	4g\	2dd\	.	.	.	.	.	.
.	.	4a\	.	.	.	.	.	.	.
=33	=33	=33	=33	=33	=33	=33	=33	=33	=33
2A 2D 2DD/	1ryy	1f#	2dd\	1r	.	1ryy	1ryy	1ryy	1ryy
!	!	!	!LO:N:vis=4	!	!	!	!	!	!
2r	.	.	2r	.	.	.	.	.	.
==	==	==	==	==	==	==	==	==	==
*-	*-	*-	*-	*-	*-	*-	*-	*-	*-
!!title: @{OTL};
!!!RDF**kern: > = above
!!!RDF**kern: < = below
!!!RDF**kern: | = vertical stroke
!!!RDF**kern: N = linked
!!!RDF**kern: i = editorial accidental
!!!RDF**kern: l = terminal long
!!!ENC: Berenika Jozajtis
!!!END: 2020-11-23
!!!EED: Wojciech Jakubiak-Danek
!!!EST: 2022-01-10
!!!URL-scan: http://bc.bdsandomierz.pl/dlibra/publication/1287/edition/1255/content
!!!ONB-nifc: UWAGA: części Pastorelli: A cóż się to dzieje, Poczekaj bracie, Jak ja pójdę
